symbols/web/looks_5/materialsymbolssharp/looks_5_20px.svg

<svg xmlns="http://www.w3.org/2000/svg" height="20" width="20"><path d="M7.479 14.167h5.042V9.125H9.229V7.583h3.292v-1.75H7.479v5.042h3.292v1.542H7.479ZM2.5 17.5v-15h15v15Zm1.75-1.75h11.5V4.25H4.25Zm0 0V4.25v11.5Z"/></svg>

<svg xmlns="http://www.w3.org/2000/svg" height="20" width="20"><path d="M7.479 14.167H12.521V9.125H9.229V7.583H12.521V5.833H7.479V10.875H10.771V12.417H7.479ZM2.5 17.5V2.5H17.5V17.5ZM4.25 15.75H15.75V4.25H4.25ZM4.25 15.75V4.25V15.75Z"/></svg>
